X:1
T:Tune-Up
C:Miles Davis
L:1/4
M:C
I:linebreak $
K:D treble
"Em" A2 z G |"A7b5" ^D2 E2 |"D" F4 |"D6" z4 ||$[K:C]"Dm" G2 z F |"G7b5" ^C2 D2 |"C" E4 |
"C6" z2 z E ||$[K:Bb]"Cm" E4 |"F7" z F G A |"Bb" d4 |"Gm" z2 d c ||[K:D]"Em" A2 A2 ||1$
"F" (3z G A (3c A G |"Bb" A4 |"A7" z2 =c _B :|2$"Eb7" z2 A =c |"D" A4 |"D6" z4 |]

